images/ten.svg

<svg width="74" height="57" fill="none" xmlns="http://www.w3.org/2000/svg"><path d="M.37583 13.604V1.52H21.4278V57H7.89983V13.604h-7.524zM30.518 28.5c0-8.7147 1.672-15.58 5.016-20.596C38.9287 2.888 44.3754.379995 51.874.379995c7.4987 0 12.9201 2.508005 16.2641 7.524005 3.3946 5.016 5.092 11.8813 5.092 20.596 0 8.816-1.6974 15.732-5.092 20.748-3.344 5.016-8.7654 7.524-16.2641 7.524-7.4986 0-12.9453-2.508-16.34-7.524-3.344-5.016-5.016-11.932-5.016-20.748zm29.944 0c0-5.1173-.5573-9.044-1.6719-11.78-1.1147-2.7867-3.4201-4.18-6.9161-4.18s-5.8013 1.3933-6.9159 4.18c-1.1147 2.736-1.672 6.6627-1.672 11.78 0 3.4453.2026 6.308.608 8.588.4053 2.2293 1.216 4.0533 2.432 5.472 1.2666 1.368 3.116 2.052 5.5479 2.052 2.432 0 4.2561-.684 5.4721-2.052 1.2666-1.4187 2.1026-3.2427 2.508-5.472.4053-2.28.6079-5.1427.6079-8.588z" fill="#02897A"/></svg>

<svg width="74" height="57" viewBox="0 0 74 57" fill="none" xmlns="http://www.w3.org/2000/svg">
<path d="M0.37583 13.604V1.52H21.4278V57H7.89983V13.604H0.37583ZM30.518 28.5C30.518 19.7853 32.19 12.92 35.534 7.904C38.9287 2.888 44.3754 0.379995 51.874 0.379995C59.3727 0.379995 64.7941 2.888 68.1381 7.904C71.5327 12.92 73.2301 19.7853 73.2301 28.5C73.2301 37.316 71.5327 44.232 68.1381 49.248C64.7941 54.264 59.3727 56.772 51.874 56.772C44.3754 56.772 38.9287 54.264 35.534 49.248C32.19 44.232 30.518 37.316 30.518 28.5ZM60.462 28.5C60.462 23.3827 59.9047 19.456 58.7901 16.72C57.6754 13.9333 55.37 12.54 51.874 12.54C48.378 12.54 46.0727 13.9333 44.9581 16.72C43.8434 19.456 43.2861 23.3827 43.2861 28.5C43.2861 31.9453 43.4887 34.808 43.8941 37.088C44.2994 39.3173 45.1101 41.1413 46.3261 42.56C47.5927 43.928 49.4421 44.612 51.874 44.612C54.306 44.612 56.1301 43.928 57.3461 42.56C58.6127 41.1413 59.4487 39.3173 59.8541 37.088C60.2594 34.808 60.462 31.9453 60.462 28.5Z" fill="#02897A"/>
</svg>
